static/img/kroki/5156826d382ae22b24b7f13396820888.svg

<?xml version="1.0" encoding="us-ascii" standalone="no"?><svg xmlns="http://www.w3.org/2000/svg" xmlns:xlink="http://www.w3.org/1999/xlink" contentStyleType="text/css" height="374px" preserveAspectRatio="none" style="width:337px;height:374px;" version="1.1" viewBox="0 0 337 374" width="337px" zoomAndPan="magnify"><defs/><g><!--class access_key--><g id="elem_access_key"><rect codeLine="23" fill="#3D176E" height="39.7891" id="access_key" rx="2.5" ry="2.5" style="stroke:#000D19;stroke-width:0.5;" width="133" x="7" y="167.79"/><ellipse cx="22" cy="187.6845" fill="#ADD1B2" rx="11" ry="11" style="stroke:#181818;stroke-width:1.0;"/><path d="M24.9688,193.3252 Q24.3906,193.622 23.75,193.7627 Q23.1094,193.9189 22.4063,193.9189 Q19.9063,193.9189 18.5781,192.2783 Q17.2656,190.622 17.2656,187.497 Q17.2656,184.372 18.5781,182.7158 Q19.9063,181.0595 22.4063,181.0595 Q23.1094,181.0595 23.75,181.2158 Q24.4063,181.372 24.9688,181.6689 L24.9688,184.3877 Q24.3438,183.8095 23.75,183.5439 Q23.1563,183.2627 22.5313,183.2627 Q21.1875,183.2627 20.5,184.3408 Q19.8125,185.4033 19.8125,187.497 Q19.8125,189.5908 20.5,190.6689 Q21.1875,191.7314 22.5313,191.7314 Q23.1563,191.7314 23.75,191.4658 Q24.3438,191.1845 24.9688,190.6064 L24.9688,193.3252 Z " fill="#000000"/><text fill="#D9B8FF" font-family="Helvetica" font-size="17" lengthAdjust="spacing" textLength="91" x="41" y="193.5698">access_key</text></g><!--class aws_kms_key--><g id="elem_aws_kms_key"><rect codeLine="26" fill="#3D176E" height="39.7891" id="aws_kms_key" rx="2.5" ry="2.5" style="stroke:#000D19;stroke-width:0.5;" width="158" x="83.5" y="328.58"/><ellipse cx="98.5" cy="348.4745" fill="#ADD1B2" rx="11" ry="11" style="stroke:#181818;stroke-width:1.0;"/><path d="M101.4688,354.1152 Q100.8906,354.412 100.25,354.5527 Q99.6094,354.7089 98.9063,354.7089 Q96.4063,354.7089 95.0781,353.0683 Q93.7656,351.412 93.7656,348.287 Q93.7656,345.162 95.0781,343.5058 Q96.4063,341.8495 98.9063,341.8495 Q99.6094,341.8495 100.25,342.0058 Q100.9063,342.162 101.4688,342.4589 L101.4688,345.1777 Q100.8438,344.5995 100.25,344.3339 Q99.6563,344.0527 99.0313,344.0527 Q97.6875,344.0527 97,345.1308 Q96.3125,346.1933 96.3125,348.287 Q96.3125,350.3808 97,351.4589 Q97.6875,352.5214 99.0313,352.5214 Q99.6563,352.5214 100.25,352.2558 Q100.8438,351.9745 101.4688,351.3964 L101.4688,354.1152 Z " fill="#000000"/><text fill="#D9B8FF" font-family="Helvetica" font-size="17" lengthAdjust="spacing" textLength="116" x="117.5" y="354.3598">aws_kms_key</text></g><!--class aws_resource--><g id="elem_aws_resource"><rect codeLine="29" fill="#3D176E" height="39.7891" id="aws_resource" rx="2.5" ry="2.5" style="stroke:#000D19;stroke-width:0.5;" width="155" x="175" y="167.79"/><ellipse cx="190" cy="187.6845" fill="#ADD1B2" rx="11" ry="11" style="stroke:#181818;stroke-width:1.0;"/><path d="M192.9688,193.3252 Q192.3906,193.622 191.75,193.7627 Q191.1094,193.9189 190.4063,193.9189 Q187.9063,193.9189 186.5781,192.2783 Q185.2656,190.622 185.2656,187.497 Q185.2656,184.372 186.5781,182.7158 Q187.9063,181.0595 190.4063,181.0595 Q191.1094,181.0595 191.75,181.2158 Q192.4063,181.372 192.9688,181.6689 L192.9688,184.3877 Q192.3438,183.8095 191.75,183.5439 Q191.1563,183.2627 190.5313,183.2627 Q189.1875,183.2627 188.5,184.3408 Q187.8125,185.4033 187.8125,187.497 Q187.8125,189.5908 188.5,190.6689 Q189.1875,191.7314 190.5313,191.7314 Q191.1563,191.7314 191.75,191.4658 Q192.3438,191.1845 192.9688,190.6064 L192.9688,193.3252 Z " fill="#000000"/><text fill="#D9B8FF" font-family="Helvetica" font-size="17" lengthAdjust="spacing" textLength="113" x="209" y="193.5698">aws_resource</text></g><!--class resource--><g id="elem_resource"><rect codeLine="32" fill="#3D176E" height="39.7891" id="resource" rx="2.5" ry="2.5" style="stroke:#000D19;stroke-width:0.5;" width="113" x="106" y="7"/><ellipse cx="121" cy="26.8945" fill="#ADD1B2" rx="11" ry="11" style="stroke:#181818;stroke-width:1.0;"/><path d="M123.9688,32.5352 Q123.3906,32.832 122.75,32.9727 Q122.1094,33.1289 121.4063,33.1289 Q118.9063,33.1289 117.5781,31.4883 Q116.2656,29.832 116.2656,26.707 Q116.2656,23.582 117.5781,21.9258 Q118.9063,20.2695 121.4063,20.2695 Q122.1094,20.2695 122.75,20.4258 Q123.4063,20.582 123.9688,20.8789 L123.9688,23.5977 Q123.3438,23.0195 122.75,22.7539 Q122.1563,22.4727 121.5313,22.4727 Q120.1875,22.4727 119.5,23.5508 Q118.8125,24.6133 118.8125,26.707 Q118.8125,28.8008 119.5,29.8789 Q120.1875,30.9414 121.5313,30.9414 Q122.1563,30.9414 122.75,30.6758 Q123.3438,30.3945 123.9688,29.8164 L123.9688,32.5352 Z " fill="#000000"/><text fill="#D9B8FF" font-family="Helvetica" font-size="17" lengthAdjust="spacing" textLength="71" x="140" y="32.7798">resource</text></g><!--reverse link resource to access_key--><g id="link_resource_access_key"><path codeLine="35" d="M142.9617,62.7532 C125.8617,93.2732 101.4,136.9 84.27,167.46 " fill="none" id="resource-backto-access_key" style="stroke:#FFAF37;stroke-width:2.0;"/><polygon fill="none" points="151.76,47.05,137.7273,59.8204,148.1961,65.6859,151.76,47.05" style="stroke:#FFAF37;stroke-width:2.0;"/></g><!--reverse link access_key to aws_kms_key--><g id="link_access_key_aws_kms_key"><path codeLine="36" d="M93.0383,223.5432 C110.1383,254.0632 134.6,297.69 151.73,328.25 " fill="none" id="access_key-backto-aws_kms_key" style="stroke:#FFAF37;stroke-width:2.0;"/><polygon fill="none" points="84.24,207.84,87.8039,226.4759,98.2727,220.6104,84.24,207.84" style="stroke:#FFAF37;stroke-width:2.0;"/></g><!--reverse link aws_resource to aws_kms_key--><g id="link_aws_resource_aws_kms_key"><path codeLine="37" d="M232.7676,223.5014 C215.4776,254.0214 190.72,297.69 173.39,328.25 " fill="none" id="aws_resource-backto-aws_kms_key" style="stroke:#FFAF37;stroke-width:2.0;"/><polygon fill="none" points="241.64,207.84,227.5471,220.544,237.9881,226.4589,241.64,207.84" style="stroke:#FFAF37;stroke-width:2.0;"/></g><!--reverse link resource to aws_resource--><g id="link_resource_aws_resource"><path codeLine="38" d="M182.2324,62.7114 C199.5224,93.2314 224.28,136.9 241.61,167.46 " fill="none" id="resource-backto-aws_resource" style="stroke:#FFAF37;stroke-width:2.0;"/><polygon fill="none" points="173.36,47.05,177.0119,65.6689,187.4529,59.754,173.36,47.05" style="stroke:#FFAF37;stroke-width:2.0;"/></g><!--SRC=[XP9BQyCm48Jl-XM2d0r9GviOUaaDfRs4qlHUrj8g5hOair8QqiT_hzCyAjjv73NpiJExgD0IEPewRBX1aoDvvajjQo0mV4Rarfch7F61Kg36awxvw6ou2ip187_2wWE35j0btWejIelUyvl8UW1HBicjhDoD3mJMDnRQ455P1TxFGY2Thm96PMIQJvNgajsXWx4SJUwmXpcII7jaE1pAKTf5haPTtFj8BFGdyb5yjBaBsAlPY_YZBhRS4b79tg87_sp75v1IsoM_ZRJNNIUoI2rzKO1qwosjeF9nZ0z8wCAcngot5QPJgIOduUTpC1FRqt4GelamxoLk-1TZFmTrtKZcf4petOe4ndfRExxklvCaYH9O5BRt_dDOQtZVFc4T9FOB]--></g></svg>

<svg xmlns="http://www.w3.org/2000/svg" width="337" height="374" viewBox="0 0 337 374"><rect width="133" height="39.789" x="7" y="167.79" fill="#3D176E" rx="2.5" ry="2.5" style="stroke:#000d19;stroke-width:.5"/><circle cx="22" cy="187.685" r="11" fill="#ADD1B2" style="stroke:#181818;stroke-width:1"/><path d="M24.969 193.325q-.578.297-1.219.438-.64.156-1.344.156-2.5 0-3.828-1.64-1.312-1.657-1.312-4.782t1.312-4.781q1.328-1.656 3.828-1.656.703 0 1.344.156.656.156 1.219.453v2.719q-.625-.578-1.219-.844-.594-.281-1.219-.281-1.343 0-2.031 1.078-.687 1.062-.687 3.156t.687 3.172q.688 1.062 2.031 1.062.625 0 1.219-.265.594-.281 1.219-.86z"/><text x="41" y="193.57" fill="#D9B8FF" font-family="Helvetica" font-size="17" textLength="91">access_key</text><rect width="158" height="39.789" x="83.5" y="328.58" fill="#3D176E" rx="2.5" ry="2.5" style="stroke:#000d19;stroke-width:.5"/><circle cx="98.5" cy="348.474" r="11" fill="#ADD1B2" style="stroke:#181818;stroke-width:1"/><path d="M101.469 354.115q-.578.297-1.219.438-.64.156-1.344.156-2.5 0-3.828-1.64-1.312-1.657-1.312-4.782t1.312-4.781q1.328-1.656 3.828-1.656.703 0 1.344.156.656.156 1.219.453v2.719q-.625-.579-1.219-.844-.594-.281-1.219-.281-1.344 0-2.031 1.078-.687 1.062-.687 3.156t.687 3.172q.688 1.062 2.031 1.062.625 0 1.219-.265.594-.281 1.219-.86z"/><text x="117.5" y="354.36" fill="#D9B8FF" font-family="Helvetica" font-size="17" textLength="116">aws_kms_key</text><rect width="155" height="39.789" x="175" y="167.79" fill="#3D176E" rx="2.5" ry="2.5" style="stroke:#000d19;stroke-width:.5"/><circle cx="190" cy="187.685" r="11" fill="#ADD1B2" style="stroke:#181818;stroke-width:1"/><path d="M192.969 193.325q-.578.297-1.219.438-.64.156-1.344.156-2.5 0-3.828-1.64-1.312-1.657-1.312-4.782t1.312-4.781q1.328-1.656 3.828-1.656.703 0 1.344.156.656.156 1.219.453v2.719q-.625-.578-1.219-.844-.594-.281-1.219-.281-1.344 0-2.031 1.078-.687 1.062-.687 3.156t.687 3.172q.688 1.062 2.031 1.062.625 0 1.219-.265.594-.281 1.219-.86z"/><text x="209" y="193.57" fill="#D9B8FF" font-family="Helvetica" font-size="17" textLength="113">aws_resource</text><rect width="113" height="39.789" x="106" y="7" fill="#3D176E" rx="2.5" ry="2.5" style="stroke:#000d19;stroke-width:.5"/><circle cx="121" cy="26.895" r="11" fill="#ADD1B2" style="stroke:#181818;stroke-width:1"/><path d="M123.969 32.535q-.578.297-1.219.438-.64.156-1.344.156-2.5 0-3.828-1.64-1.312-1.657-1.312-4.782t1.312-4.781q1.328-1.656 3.828-1.656.703 0 1.344.156.656.156 1.219.453v2.719q-.625-.578-1.219-.844-.594-.281-1.219-.281-1.344 0-2.031 1.078-.687 1.062-.687 3.156t.687 3.172q.688 1.062 2.031 1.062.625 0 1.219-.265.594-.281 1.219-.86z"/><text x="140" y="32.78" fill="#D9B8FF" font-family="Helvetica" font-size="17" textLength="71">resource</text><path fill="none" d="M142.962 62.753C125.862 93.273 101.4 136.9 84.27 167.46m67.49-120.41-14.033 12.77 10.47 5.866z" style="stroke:#ffaf37;stroke-width:2"/><g fill="none"><path d="M93.038 223.543c17.1 30.52 41.562 74.147 58.692 104.707" style="stroke:#ffaf37;stroke-width:2"/><path d="m84.24 207.84 3.564 18.636 10.469-5.866z" style="stroke:#ffaf37;stroke-width:2"/></g><g fill="none"><path d="M232.768 223.501c-17.29 30.52-42.048 74.189-59.378 104.749" style="stroke:#ffaf37;stroke-width:2"/><path d="m241.64 207.84-14.093 12.704 10.441 5.915z" style="stroke:#ffaf37;stroke-width:2"/></g><g fill="none"><path d="M182.232 62.711c17.29 30.52 42.048 74.189 59.378 104.749" style="stroke:#ffaf37;stroke-width:2"/><path d="m173.36 47.05 3.652 18.619 10.44-5.915z" style="stroke:#ffaf37;stroke-width:2"/></g></svg>
